app/component-library/components/Icons/Icon/assets/eye.svg

<svg width="24" height="24" viewBox="0 0 24 24" fill="none" xmlns="http://www.w3.org/2000/svg">
<path d="M21.5308 9.15018C19.2208 5.52017 15.8408 3.43018 12.2808 3.43018C10.5008 3.43018 8.77076 3.95018 7.19076 4.92018C5.61076 5.90018 4.19076 7.33017 3.03076 9.15018C2.03076 10.7202 2.03076 13.2702 3.03076 14.8402C5.34076 18.4802 8.72076 20.5602 12.2808 20.5602C14.0608 20.5602 15.7908 20.0402 17.3708 19.0702C18.9508 18.0902 20.3708 16.6602 21.5308 14.8402C22.5308 13.2802 22.5308 10.7202 21.5308 9.15018ZM12.2808 16.0402C10.0408 16.0402 8.24076 14.2302 8.24076 12.0002C8.24076 9.77018 10.0408 7.96018 12.2808 7.96018C14.5208 7.96018 16.3208 9.77018 16.3208 12.0002C16.3208 14.2302 14.5208 16.0402 12.2808 16.0402Z" fill="currentColor"/>
<path d="M12.2807 9.14014C10.7107 9.14014 9.43066 10.4201 9.43066 12.0001C9.43066 13.5701 10.7107 14.8501 12.2807 14.8501C13.8507 14.8501 15.1407 13.5701 15.1407 12.0001C15.1407 10.4301 13.8507 9.14014 12.2807 9.14014Z" fill="currentColor"/>
</svg>

<svg xmlns="http://www.w3.org/2000/svg" width="24" height="24" viewBox="0 0 24 24" fill="none"><path d="M21.53 9.15c-2.31-3.63-5.69-5.72-9.25-5.72-1.78 0-3.51.52-5.09 1.49-1.58.98-3 2.41-4.16 4.23-1 1.57-1 4.12 0 5.69 2.31 3.64 5.69 5.72 9.25 5.72 1.78 0 3.51-.52 5.09-1.49 1.58-.98 3-2.41 4.16-4.23 1-1.56 1-4.12 0-5.69zm-9.25 6.89c-2.24 0-4.04-1.81-4.04-4.04s1.8-4.04 4.04-4.04 4.04 1.81 4.04 4.04-1.8 4.04-4.04 4.04z" fill="currentColor"/><path d="M12.28 9.14a2.855 2.855 0 0 0 0 5.71c1.57 0 2.86-1.28 2.86-2.85s-1.29-2.86-2.86-2.86z" fill="currentColor"/></svg>
